humanity-icon-theme/Humanity/apps/128/preferences-desktop-accessibility.svg

<?xml version="1.0" encoding="UTF-8" standalone="no"?>
<!-- Created with Inkscape (http://www.inkscape.org/) -->

<svg
   xmlns:svg="http://www.w3.org/2000/svg"
   xmlns="http://www.w3.org/2000/svg"
   xmlns:xlink="http://www.w3.org/1999/xlink"
   version="1.0"
   width="128"
   height="128"
   id="svg3675">
  <defs
     id="defs3677">
    <linearGradient
       id="linearGradient8838">
      <stop
         id="stop8840"
         style="stop-color:#000000;stop-opacity:1"
         offset="0" />
      <stop
         id="stop8842"
         style="stop-color:#000000;stop-opacity:0"
         offset="1" />
    </linearGradient>
    <linearGradient
       id="linearGradient2490-182-124">
      <stop
         id="stop2788"
         style="stop-color:#1f4b6a;stop-opacity:1"
         offset="0" />
      <stop
         id="stop2790"
         style="stop-color:#4083c2;stop-opacity:1"
         offset="1" />
    </linearGradient>
    <linearGradient
       id="linearGradient3242-187-536">
      <stop
         id="stop2778"
         style="stop-color:#8badea;stop-opacity:1"
         offset="0" />
      <stop
         id="stop2780"
         style="stop-color:#6396cd;stop-opacity:1"
         offset="0.26238" />
      <stop
         id="stop2782"
         style="stop-color:#3b7caf;stop-opacity:1"
         offset="0.66093999" />
      <stop
         id="stop2784"
         style="stop-color:#194c70;stop-opacity:1"
         offset="1" />
    </linearGradient>
    <linearGradient
       id="linearGradient4873">
      <stop
         id="stop4875"
         style="stop-color:#ffffff;stop-opacity:1"
         offset="0" />
      <stop
         id="stop4877"
         style="stop-color:#ffffff;stop-opacity:0"
         offset="1" />
    </linearGradient>
    <linearGradient
       x1="63.397362"
       y1="-12.489107"
       x2="63.397362"
       y2="5.4675598"
       id="linearGradient2407"
       xlink:href="#linearGradient4873"
       gradientUnits="userSpaceOnUse"
       gradientTransform="matrix(5.64345,0,0,5.6429422,-286.50588,83.30933)" />
    <radialGradient
       cx="23.895569"
       cy="3.9900031"
       r="20.397499"
       fx="23.895569"
       fy="3.9900031"
       id="radialGradient2410"
       xlink:href="#linearGradient3242-187-536"
       gradientUnits="userSpaceOnUse"
       gradientTransform="matrix(0,6.102135,-8.0552513,0,96.659483,-138.25671)" />
    <linearGradient
       x1="18.379412"
       y1="44.980297"
       x2="18.379412"
       y2="3.0816143"
       id="linearGradient2412"
       xlink:href="#linearGradient2490-182-124"
       gradientUnits="userSpaceOnUse"
       gradientTransform="matrix(2.5569423,0,0,2.5567709,3.1523875,2.1353877)" />
    <radialGradient
       cx="62.625"
       cy="4.625"
       r="10.625"
       fx="62.625"
       fy="4.625"
       id="radialGradient2415"
       xlink:href="#linearGradient8838"
       gradientUnits="userSpaceOnUse"
       gradientTransform="matrix(5.7750605,0,0,2.0085789,-297.14415,94.222906)" />
  </defs>
  <path
     d="m 125.87901,103.5126 c 0,11.7864 -27.471807,21.34118 -61.36001,21.34118 -33.888198,0 -61.3600168,-9.55478 -61.3600168,-21.34118 0,-11.786422 27.4718188,-21.341187 61.3600168,-21.341187 33.888203,0 61.36001,9.554765 61.36001,21.341187 l 0,0 z"
     id="path8836"
     style="opacity:0.5;fill:url(#radialGradient2415);fill-opacity:1;fill-rule:evenodd;stroke:none;stroke-width:1;marker:none;visibility:visible;display:inline;overflow:visible" />
  <path
     d="m 64.519014,11.483576 c -28.701626,0 -52.017803,23.314603 -52.017803,52.014306 0,28.699691 23.316177,52.014288 52.017803,52.014288 28.701614,0 52.017826,-23.314597 52.017796,-52.014288 0,-28.699703 -23.316182,-52.014306 -52.017796,-52.014306 z"
     id="path2555"
     style="fill:url(#radialGradient2410);fill-opacity:1;stroke:url(#linearGradient2412);stroke-width:0.99915248;stroke-linecap:round;stroke-linejoin:round;stroke-miterlimit:4;stroke-opacity:1;stroke-dasharray:none;stroke-dashoffset:0" />
  <path
     d="M 115.5,63.496 C 115.5,90.752953 93.199766,114.73741 64.519635,114.5 35.007083,114.25468 13.845569,90.750522 13.5,63.496 13.143881,35.409382 36.786661,12.381294 64.519635,12.5 91.775038,12.616662 115.5,34.45973 115.5,63.496 l 0,0 z"
     id="path8655"
     style="opacity:0.4;fill:none;stroke:url(#linearGradient2407);stroke-width:0.99915248;stroke-miterlimit:4;stroke-opacity:1;stroke-dasharray:none" />
  <path
     d="m 72.393895,35.04105 c 0,4.418438 -3.594869,8.00442 -8.024261,8.00442 -4.429391,0 -8.024259,-3.585982 -8.024259,-8.00442 0,-4.418441 3.594868,-8.004423 8.024259,-8.004423 4.429392,0 8.024261,3.585982 8.024261,8.004423 z M 91.398943,44.340419 63.989136,48.242024 36.726955,44.28162 c -1.437336,-0.388329 -1.695544,-0.360696 -2.482995,0.01784 -0.787452,0.378537 -1.303681,0.973884 -1.314539,1.827633 -0.01006,0.853866 0.536877,1.590236 1.314539,1.98755 L 55.606538,54.512595 55.460417,70.031415 48.122,93.273602 c -0.363893,1.299759 -0.221488,2.296872 0.384666,3.123156 0.767569,1.046318 2.633329,0.490672 3.359404,-0.567802 L 64.030871,70.741289 75.966043,95.785607 c 0.645369,1.097743 2.083975,1.479072 3.21332,0.851816 1.129345,-0.627248 1.180576,-2.025517 0.776637,-3.123268 L 72.657654,70.171977 72.365581,55.562058 94.027907,48.031497 c 0.875245,-0.596566 1.255479,-1.725959 0.87639,-2.69731 -0.379119,-0.971456 -1.117016,-1.235 -2.179093,-1.117291 -0.380356,-0.03074 -0.994636,0.01814 -1.326261,0.123523 z"
     id="path6668"
     style="opacity:0.2;fill:#000000;fill-opacity:1;stroke:none" />
  <path
     d="m 72.393895,36.040613 c 0,4.418438 -3.594869,8.00442 -8.024261,8.00442 -4.429391,0 -8.024259,-3.585982 -8.024259,-8.00442 0,-4.418441 3.594868,-8.004423 8.024259,-8.004423 4.429392,0 8.024261,3.585982 8.024261,8.004423 z m 19.005048,9.299369 -27.409807,3.901605 -27.262181,-3.960404 c -1.437336,-0.388329 -1.695544,-0.360696 -2.482995,0.01784 -0.787452,0.378537 -1.303681,0.973884 -1.314539,1.827633 -0.01006,0.853866 0.536877,1.590236 1.314539,1.98755 L 55.606538,55.512158 55.460417,71.030978 48.122,94.273165 c -0.363893,1.299759 -0.221488,2.296872 0.384666,3.123156 0.767569,1.046318 2.633329,0.490672 3.359404,-0.567802 L 64.030871,71.740852 75.966043,96.78517 c 0.645369,1.097743 2.083975,1.479072 3.21332,0.851816 1.129345,-0.627248 1.180576,-2.025517 0.776637,-3.123268 L 72.657654,71.17154 72.365581,56.561621 94.027907,49.03106 c 0.875245,-0.596566 1.255479,-1.725959 0.87639,-2.69731 -0.379119,-0.971456 -1.117016,-1.235 -2.179093,-1.117291 -0.380356,-0.03074 -0.994636,0.01814 -1.326261,0.123523 z"
     id="path2851"
     style="fill:#ffffff;fill-opacity:1;stroke:none" />
</svg>

<?xml version="1.0" encoding="UTF-8" standalone="no"?>
<!-- Created with Inkscape (http://www.inkscape.org/) -->
<svg id="svg3675" xmlns="http://www.w3.org/2000/svg" height="128" width="128" version="1.0" xmlns:xlink="http://www.w3.org/1999/xlink">
 <defs id="defs3677">
  <linearGradient id="linearGradient2407" y2="5.4676" gradientUnits="userSpaceOnUse" x2="63.397" gradientTransform="matrix(5.6434 0 0 5.6429 -286.51 83.309)" y1="-12.489" x1="63.397">
   <stop id="stop4875" style="stop-color:#fff" offset="0"/>
   <stop id="stop4877" style="stop-color:#fff;stop-opacity:0" offset="1"/>
  </linearGradient>
  <radialGradient id="radialGradient2410" gradientUnits="userSpaceOnUse" cy="3.99" cx="23.896" gradientTransform="matrix(0 6.1021 -8.0553 0 96.659 -138.26)" r="20.397">
   <stop id="stop2778" style="stop-color:#8badea" offset="0"/>
   <stop id="stop2780" style="stop-color:#6396cd" offset=".26238"/>
   <stop id="stop2782" style="stop-color:#3b7caf" offset=".66094"/>
   <stop id="stop2784" style="stop-color:#194c70" offset="1"/>
  </radialGradient>
  <linearGradient id="linearGradient2412" y2="3.0816" gradientUnits="userSpaceOnUse" x2="18.379" gradientTransform="matrix(2.5569 0 0 2.5568 3.1524 2.1354)" y1="44.98" x1="18.379">
   <stop id="stop2788" style="stop-color:#1f4b6a" offset="0"/>
   <stop id="stop2790" style="stop-color:#4083c2" offset="1"/>
  </linearGradient>
  <radialGradient id="radialGradient2415" gradientUnits="userSpaceOnUse" cy="4.625" cx="62.625" gradientTransform="matrix(5.7751 0 0 2.0086 -297.14 94.223)" r="10.625">
   <stop id="stop8840" offset="0"/>
   <stop id="stop8842" style="stop-opacity:0" offset="1"/>
  </radialGradient>
 </defs>
 <path id="path8836" style="opacity:.5;fill-rule:evenodd;fill:url(#radialGradient2415)" d="m125.88 103.51c0 11.786-27.472 21.341-61.36 21.341s-61.36-9.5548-61.36-21.341 27.472-21.341 61.36-21.341 61.36 9.5548 61.36 21.341z"/>
 <path id="path2555" style="stroke-linejoin:round;stroke:url(#linearGradient2412);stroke-linecap:round;stroke-width:.99915;fill:url(#radialGradient2410)" d="m64.519 11.484c-28.702 0-52.018 23.315-52.018 52.014 0 28.7 23.316 52.014 52.018 52.014s52.018-23.315 52.018-52.014c0-28.7-23.316-52.014-52.018-52.014z"/>
 <path id="path8655" style="opacity:.4;stroke:url(#linearGradient2407);stroke-width:.99915;fill:none" d="m115.5 63.496c0 27.257-22.3 51.244-50.98 51.004-29.513-0.25-50.674-23.749-51.02-51.004-0.356-28.087 23.287-51.115 51.02-50.996 27.255 0.117 50.98 21.96 50.98 50.996z"/>
 <path id="path6668" style="opacity:.2" d="m72.394 35.041c0 4.4184-3.5949 8.0044-8.0243 8.0044s-8.0243-3.586-8.0243-8.0044 3.5949-8.0044 8.0243-8.0044 8.0243 3.586 8.0243 8.0044zm19.005 9.299-27.41 3.902-27.262-3.96c-1.4373-0.38833-1.6955-0.3607-2.483 0.01784-0.78745 0.37854-1.3037 0.97388-1.3145 1.8276-0.01006 0.85387 0.53688 1.5902 1.3145 1.9876l21.363 6.398-0.147 15.518-7.338 23.243c-0.36389 1.2998-0.22149 2.2969 0.38467 3.1232 0.76757 1.0463 2.6333 0.49067 3.3594-0.5678l12.165-25.088 11.935 25.045c0.64537 1.0977 2.084 1.4791 3.2133 0.85182 1.1293-0.62725 1.1806-2.0255 0.77664-3.1233l-7.298-23.342-0.292-14.61 21.662-7.531c0.87524-0.59657 1.2555-1.726 0.87639-2.6973-0.37912-0.97146-1.117-1.235-2.1791-1.1173-0.38036-0.03074-0.99464 0.01814-1.3263 0.12352z"/>
 <path id="path2851" style="fill:#fff" d="m72.394 36.041c0 4.4184-3.5949 8.0044-8.0243 8.0044s-8.0243-3.586-8.0243-8.0044 3.5949-8.0044 8.0243-8.0044 8.0243 3.586 8.0243 8.0044zm19.005 9.2994-27.41 3.9016-27.262-3.9604c-1.4373-0.38833-1.6955-0.3607-2.483 0.01784-0.78745 0.37854-1.3037 0.97388-1.3145 1.8276-0.01006 0.85387 0.53688 1.5902 1.3145 1.9876l21.363 6.397-0.147 15.519-7.338 23.242c-0.36389 1.2998-0.22149 2.2969 0.38467 3.1232 0.76757 1.0463 2.6333 0.49067 3.3594-0.5678l12.165-25.087 11.935 25.044c0.64537 1.0977 2.084 1.4791 3.2133 0.85182 1.1293-0.62725 1.1806-2.0255 0.77664-3.1233l-7.298-23.342-0.292-14.61 21.662-7.531c0.87524-0.59657 1.2555-1.726 0.87639-2.6973-0.37912-0.97146-1.117-1.235-2.1791-1.1173-0.38036-0.03074-0.99464 0.01814-1.3263 0.12352z"/>
</svg>
